X: 17
T:Croppies Lay Down. WCa.17
M:6/8
L:1/8
Q:120
S:Wm. Calvert MS, 1812, Leyburn, Yorks.
R:jig
O:England
A:North Yorkshire
Z:vmp.Chris Partington, May 2003
K:G
g|dBG GFG|ABA ABd|ege dBd|gGG Gge|!
dBG GFG|ABA ABd|ege dBd|gGGG2::!
e|def gfg|efga2f|gab efg|dBG AGF|!
GBd efg|dBG AGF|G3efg|dBdG2:||
